X:1
T:Passacaglia
T:Passacaglia
T:George Frideric Handel
C:Halvorsen, Johan
%%score { ( 1 2 ) ( 3 4 5 ) }
L:1/8
Q:1/4=88
M:4/4
K:Bb
V:1 treble nm="Violin" snm="Vln."
V:2 treble 
V:3 alto nm="Viola" snm="Vla."
V:4 alto 
V:5 alto 
V:1
"^Largamente. M.M.."!ff! (!>![Bd]>.[ce])(!>![Ac]>.[Bd]) (!>![ce]>.[ce])(!>![Bd]>.[ce]) | %1
 (!>![Ac]>.[Af])(!>![Ge]>.[Af]) (!>![Bd]>.[Bd])(!>![Ac]>.[Bd]) | %2
 (!>![GB]>.[GB])(!>![^FA]>.[GB]) (!>![Ac]>.[Ac])(!>![GB]>.[Ac]) | %3
 (!>![^FA]>.[Fd])(!>![=Ec]>.[Fd]) (!>![GB]>.A) !>!G2 || v[Bd]3 u[Bd] [ce]3 [Bd] | %5
 [Ac]3 [Ac] [Bd]3 [Ac] | [GB]3 [GB] [Ac]3 [GB] | (v[^FA]2 !open!d2) ((B>A) G2) || %8
!p!"_dolce" (vB!<(!cg!mf!f!<)!!>(! edc!p!B)!>)! |!<(! (ABf!mf!e!<)!!>(! dcB!pp!A)!>)! | %10
!<(! (GAe!f!d!<)!!>(! cBA!p!G)!>)! |!<(! (^EGd!mf!c)!<)!!mp!!>(! (B!p!A!pp! G2)!>)! | %12
!pp!"_dolcissimo" (TG2{^FA} .A)z(c z{/e} .e') z | (TF2{=EG} .G)z(B z{/d} .d') z | %14
 (TE2{DF} .F)z(A z{/c} .c') z |{/d} d' z{/^f}^f' z{/a} g'4 || %16
 (3z!p! .d.c (3.B.c.d (3.e.f.g (3.c.d.e | (3.A.B.c (3.F.f.e (3.d.e.f (3.B.c.d | %18
 .ez.u[Bg] z .u[Ag]z.u[ce] z | .u[cd]z.u[A^f] z [Gg] z z2 |!f! (B2 F2) (!4!g2 e2) | %21
 (A2 F2) (!4!f2 d2) | %22
 (3!tenuto!e!tenuto!f!tenuto!g (3!tenuto!c!tenuto!d!tenuto!e (3!>!d(!>!=e!>!^f (3!>!g!>!a!>!b) | %23
!p!"_spicatto" (3.c'.b.a (3.d'.c'.d' (3.b.c'.d' (3:2:7(g3/2a/4b/4c'/4d'/4=e'/4^f'/4 |: %24
[Q:1/4=110]"_con grasia" g')z/=f'/ _e'z/d'/ c'z/b/ az/(g/ |{/g} f')z/e'/ d'z/c'/ bz/a/ gz/(f/ | %26
{/e} d')z/c'/ bz/a/ gz/f/ ez/d/ | d z/ (a/ d') z/ (c'/ b) z/ (a/ g)(d :| %28
!f!{Bd} g/)(!tenuto!f/!tenuto!e/!tenuto!d/ (5:4:5!tenuto!c/B/A/G/F/ E)[Ecg] z (vc | %29
{!0!Ac} !>!f/)(!tenuto!e/!tenuto!d/!tenuto!c/ (5:4:5!tenuto!B/A/G/F/E/ D)[DBf] z (vB | %30
{GB} !>!e/)(!tenuto!d/!tenuto!c/!tenuto!B/ (5:4:5!tenuto!A/G/F/E/D/ C)[A,Ge] z (c | %31
{^FA} d/)(!tenuto!c/!tenuto!B/!tenuto!A/ (7:4:7!tenuto!G/^F/E/D/C/B,/A,/ G,)[DBg] z2 |: %32
!p!"^a tempo rubato"{/^f} gzG, z!<(! (6:4:6(uc'/d'/e'/d'/c'/b/!<)!!mp!!>(! (7:4:7a/g/f/e/d/c/B/!>)! | %33
!p! G)zA, z!<(! (6:4:6(ub/c'/d'/c'/b/a/!<)!!mp! (7:4:7g/f/e/d/c/B/A/ | %34
 G)zG, z (6:4:6(E/G/A/c/e/c/ B)!>![Bg]- | [Bg]2 (6:4:6([c^f]/d/c/A/^F/D/ G2) z2 :| %36
 z/!f!"_spiccato" b/g/b/ g/b/f/b/ e/b/d/b/ c/b/B/b/ | A/a/g/a/ f/a/e/a/ d/a/c/a/ B/a/A/a/ | %38
 G/g/f/g/ e/g/d/g/ c/g/B/g/ A/g/G/g/ | A/g/^f/=e/ f/g/e/f/ g z z2 | %40
 z/"_possibile"!pp! b/g/b/ g/b/f/b/ e/b/d/b/ c/b/B/b/ | A/a/g/a/ f/a/e/a/ d/a/c/a/ B/a/A/a/ | %42
 G/g/f/g/ e/g/d/g/ c/g/B/g/ A/g/G/g/ | A/g/^f/=e/ f/g/e/f/ g z z2 || z PbPgPd z P=ePgPb | %45
 z Pc'PaPf z P^gP=bPd' | z P!courtesy!_bP!courtesy!=gP=e z PaPgPb | %47
 z (3P!courtesy!_e"^rit."PdPc z[Q:1/4=56] PB[Q:1/4=43]PA[Q:1/4=32]{GA} G2[Q:1/4=69] |: %48
[Q:1/4=52]"^Andante"!p!!<(! G8!<)! |!<(! (c3!<)!!mf! e)!p!!>(! d4!>)! |!pp! (Bc d2- d) (c2 B) | %51
!<(! (!open!A3!<)! B)!p! G4 ::!mp!!f! (!4!g"_dim."!4!_agf)!pp!!pp!!pp! e4 | (fgfe d4) | %54
!<(! x4 E G3 | (dc)(BA)!<)!!f!!f! G4 :| %56
"^pizz."!mf![Q:1/4=90]"^Piu' mosso." [B,Gd]z[=B,Gf] z [CGf]z[CGe]d | %57
 [A,Fc]z[A,Fe] z [B,Fe]z[B,Fd] z | [EGc]z[CGe] z [A,^Fd]z[G,DB] z | [CGA]z[D^FA][DEB] [B,G] z z2 || %60
"^pizz."!ppp!"^con spiritu" !arpeggio![B,Gd] z !arpeggio![=B,Gf] z !arpeggio![CGf] z !arpeggio![CGe]d | %61
 !arpeggio![A,Fc] z !arpeggio![A,Fe] z !arpeggio![B,Fe] z !arpeggio![B,Fd] z | %62
 !arpeggio![EGc] z !arpeggio![CGe] z !arpeggio![A,^Fd] z !arpeggio![G,DB] z | %63
 !arpeggio![CGA] z !arpeggio![D^FA]!arpeggio![DEB] [B,G] z z2 |: %64
!p!"^arco""_spiccato" G,/4B,/4D/4G/4B,/4D/4G/4B/4 D/4G/4B/4d/4G/4B/4d/4f/4 e/4f/4g/4f/4e/4f/4e/4d/4 c/4d/4e/4d/4c/4d/4c/4B/4 | %65
 !^!A!^!C!^!F!^!A !^!B!^!A!^!G!^!F | %66
 E/4G/4B/4e/4G/4B/4e/4g/4 B/4e/4g/4b/4e/4g/4b/4e'/4 c'/4d'/4e'/4d'/4c'/4d'/4c'/4b/4 a/4b/4c'/4b/4a/4b/4a/4g/4 | %67
 .^f.d.d'.d .g.G, z2 :|"_a capriccia"{ba^g} .b{=gfe}.g{dc=B}.d{_BA^G}.B z4 | %69
{ba^g} .a{=gfe}.f{dc=B}.c{_BA^G}.A z4 |{_ag^f} .g{=fed}.e{cB!courtesy!=A}.B{_AG^F}.G z4 | %71
{g^f^e} .=f{_ed^c}.d{d=c=B}.c{_BA^G}.A[Q:1/4=72]"_rit." z4[Q:1/4=65][Q:1/4=43][Q:1/4=34] |: %72
[Q:1/4=80]"^2te mal ponticello"!<(! (3:2:6((^c/d/)(^f/g/)(a/b/) (3:2:6(^c'/d'/)(a/b/)(f/g/))!<)!!mp! (3:2:6((e/g/)(c/e/)(e/g/) (3:2:6(c/e/)(e/g/)(c/e/)) | %73
"^flantando"!<(! (3:2:6((=E/F/)(^G/A/)(=B/c/) (3:2:6(=e/f/)(^g/a/)(=b/c'/))!<)!!mf! (3:2:6((d'/f'/)(b/d'/)(d'/f'/) (3:2:6b/d'/d'/f'/b/d'/) | %74
 (3:2:6((^f/g/)(d/e/)(A/B/) (3:2:6(^F/G/))(.B/.e/.g/.b/) (3:2:6((^g/a/)(d/e/)(=B/c/) (3:2:6(^G/A/))(.c/.e/.a/.c'/) | %75
 (3:2:6((a/b/)(^f/g/)(^c/d/) (3:2:6(=B/=c/)(A/_B/)(^G/A/))"^rit." (3:2:6(^F/=G/)[Q:1/4=80](!courtesy!^f/!courtesy!=g/)(^f'/g'/)"_rep and lib." [fb]/[gc']/ z :| %76
[M:12/8][Q:1/2=80] !open!d z z2"_saltando" (.vB/.c/.d/.B/) ue z z2"_sempre" (.ve/.d/.c/.B/) | %77
 A z z2 A/B/c/A/ d z z2 d/c/B/A/ | G z z2 G/A/B/G/ c z z2 c/e/d/c/ | %79
 B z z2 A/c/B/A/ G z z !fermata!z2[Q:1/4=80] z || %80
[M:4/4]"^Molto Energico"!f! !>![G,Fd]3 .[Fe] !>![Fc]2 !>![Fd]2 | %81
 u[Ee]/(vC/4D/4E/4F/4G/4A/4 =B/4c/4d/4e/4f/4g/4a/4=b/4 c'/4d'/4e'/4f'/4g'/4a'/4b'/4c''/4) (d''>.[Fd]) | %82
 !>![Fc]3 .[Ff] (!>![Fe]2 !>![Ff]2) | %83
 [Fd]/(B,/4C/4(5:4:5D/4E/4F/4G/4A/4 B/4c/4d/4e/4f/4g/4a/4b/4!8va(! c'/4d'/4e'/4f'/4g'/4a'/4b'/4c''/4 (ud''>)!8va)!.c) | %84
 !>![GB]3 .[GB] !>![GA]2 !>![GB]2 | !>![Ec]3 .[Ec] !>![E=B]2 !>![Ec]>_B | %86
 !>![^FA]3 .[Fd]!>(! !>![=Ec]2 !>![Fd]2 | %87
 [DB]/(D/4G/4B/4d/4g/4b/4!>)!"_rit,"!mp![Q:1/4=80] d'2) z/ (d/4^f/4a/4d'/4!8va(!^f'/4a'/4 !fermata!d''2)!8va)! || %88
[Q:1/4=126]"^Allegro con fuoco"!f! [Bd]/G,/G,/[ce]/ [Ac]/G,/G,/[Bd]/ [ce]/G,/G,/[ce]/ [Bd]/G,/G,/[ce]/ | %89
 [Ac]/G,/G,/[Af]/ [Ge]/G,/G,/[Af]/ [Bd]/G,/G,/[Bd]/ [Ac]/G,/G,/[Bd]/ | %90
 [GB]/G,/G,/[GB]/ [^FA]/G,/G,/[GB]/ [Ac]/G,/G,/[Ac]/ [GB]/G,/G,/[Ac]/ | %91
 [^FA]/G,/G,/[Fd]/ [=Ec]/G,/G,/[Fd]/ [GB]/G,/G,/[FA]/ [B,G]/G,/G,/[Bg]/ | %92
!ff! [=Bg]/[G,D]/[G,D]/[B_a]/ [B^f]/[G,D]/[G,D]/[Bg]/ [cg]/[G,E]/[G,E]/[ca]/ [cf]/[G,E]/[G,E]/[cg]/ | %93
"^Don't question that ♮ sing below on bar 95: 6th note of semiquaver (♬) in the Violin section" [^c!courtesy!=a]/[G,=E]/[G,E]/[c!courtesy!_b]/ [c^g]/[=G,E]/[G,E]/[ca]/ [db]/[G,F]/[G,F]/[dc']/ [da]/[G,F]/[G,F]/[db]/ | %94
"_cresc. molto e string" [d=b]/[G,F]/!<(![G,F]/[Q:1/4=80][db]/ [ec']/[G,^F]/[G,F]/[Q:1/4=80][ec']/ [=e^c']/[Q:1/4=80][G,G]/[G,G]/[ec']/ [g=e']/[G,B]/[Q:1/4=80][G,B]/[ge']/ | %95
 [bg']/[G,^c]/[G,c]/[bg']/ [^c'b']/[G,=e]/[G,e]/[c'b']/!<)!!ff!!8va(! !fermata![=e'^c'']!8va)! !fermata!z!fff!!fff![Q:1/4=62]"^Adagio" !>!d2 | %96
 !>![G,Ed]2"_rit.   .    .   .   .  .  .  .  .   .   .   .   .   .   .   .  .   .   .   .   .   ." !>![Ec][Q:1/4=50]!>![EB] A7/2 G/ | %97
[Q:1/4=45] [=B,G]6 z2 |] %98
V:2
 x8 | x8 | x8 | x8 || x8 | x8 | x8 | x8 || x8 | x8 | x8 | x8 | x8 | x8 | x8 | x8 || x8 | x8 | x8 | %19
 x8 | d4 G4 | c4 F4 | x8 | x8 |: x8 | x8 | x8 | x8 :| x8 | x8 | x8 | x8 |: x8 | x8 | x8 | x8 :| %36
 x8 | x8 | x8 | x8 | x8 | x8 | x8 | x8 || x8 | x8 | x8 | x8 |: (de f2-!mf! f)!>(! (e2!>)!!p! d) | %49
 G_G F2 F4 | (F2 E3) E3 | (E2 D2) B,4 :: G4 G4 | x4 F4 | efed c(edc) | D2 ^F2 z4 :| x8 | x8 | x8 | %59
 x8 || x8 | x8 | x8 | x8 |: x8 | x8 | x8 | x8 :| x8 | x8 | x8 | x8 |: x8 | x8 | x8 | x8 :| %76
[M:12/8] x12 | x12 | x12 | x12 ||[M:4/4] x8 | x8 | x8 | x4!8va(! x7/2!8va)! x/ | x8 | x8 | x8 | %87
 x11/2!8va(! x5/2!8va)! || x8 | x8 | x8 | x8 | x8 | x8 | x8 | x4!8va(! x!8va)! x (!>!GF) | %96
 x4 (G2 ^F2) | x8 |] %98
V:3
!ff! G4 E4 | F4 B,4 | E4 C4 | D2 D,2 G,4 ||{/B,} !>!G!>!F!>!E!>!D !>!C!>!D!>!E!>!D | %5
 !>!F!>!E!>!D!>!C !>!B,!>!C!>!D!>!B, | !>!E!>!D!>!C!>!B, !>!A,!>!B,!>!C!>!A, | %7
 !>!D!>!C!>!B,!>!A, !>!G,(DB,A,) ||!p!"_dolce" (G,2 B,2) (.Cz.E,) z | (F,2 A,2) (.B,z.D,) z | %10
 (E,2 G,2) (.A,z.C,) z | (D,2 ^F,2) (G,3 A,) |!pp!"_dolcissimo"!<(! (B,DG!mp!F!<)!!>(! EDCB,)!>)! | %13
!pp!!<(! (A,CF!f!E!<)!!>(! DCB,A,)!>)! |!p!!<(! (G,B,E!ff!D!<)!!>(! CB,A,G,)!>)! | %15
!mp!!<(! (^F,G,C!f!B,)!<)!!>(! (B,A, G,2)!>)! ||!p! u[B,D]zu[G,D] z u[CG]zu[CE] z | %17
 Fz[A,F] z [B,F]z[DF] z | (3.G.A.B (3.E.F.G (3.C.D.E (3.B,.C.D | %19
 (3.^F,.G,.A, (3.D,.D.C (3.B,.C.D !>!G,2- | %20
!f! (3G,!tenuto!D!tenuto!C (3!tenuto!B,!tenuto!C!tenuto!D (3!tenuto!E!tenuto!F!tenuto!G (3!tenuto!C,!tenuto!D,!tenuto!E, | %21
!f! (3!tenuto!F,!tenuto!C!tenuto!B, (3!tenuto!A,!tenuto!B,!tenuto!C (3!tenuto!D!tenuto!E!tenuto!F (3!tenuto!B,!tenuto!C!tenuto!D | %22
 C2 (3!tenuto!E!tenuto!D!tenuto!C (3:2:2(D2{/G} C) (3:2:2(B,2{/A} G) |!p! (G2 ^F2) G3 z |: %24
"_spicatto" .G,/.D/.B/.D/ .B,/.G/.d/.G/ .C/.G/.e/.G/ .E/.c/.F/.c/ | %25
"_spicatto" .F,/.C/.A/.C/ .A,/.F/.c/.F/ .B,/.F/.d/.F/ .D/.B/.E/.B/ | %26
"_spicatto" .E,/.B,/.G/.B,/ .G,/.E/.B/.E/ .A,/.E/.c/.E/ .C/.A/.D/.A/ | %27
 D/e/d/c/ B/c/B/A/ G/A/G/D/ B,/C/B,/A,/ :| %28
!f! G,[G,DB] z (vB, !open!G/)!tenuto!F/!tenuto!E/!tenuto!D/ !tenuto!C/!tenuto!B,/!tenuto!A,/!tenuto!G,/ | %29
 F,[CFA] z (vA, !>!F/)(!tenuto!E/!tenuto!D/!tenuto!C/ !tenuto!B,/!tenuto!A,/!tenuto!G,/!tenuto!F,/) | %30
 E,[B,G] z (vG, !>!E/)!tenuto!D/!tenuto!C/!tenuto!B,/ !tenuto!A,/!tenuto!G,/!tenuto!^F,/!tenuto!G,/ | %31
 D,[C^F] z v^F, (uG,/A,/B,/C/ D/)(vC/B,/A,/) |: %32
"^a tempo rubato"!p! (6:4:6(uG,/A,/B,/C/!<(!D/E/ (6:4:6F/G/A/B/c/d/!<)!!mp! _e) z vE,2 | %33
!p!!<(! (6:4:6(uF,/G,/A,/B,/C/D/ (6:4:6E/F/G/A/B/c/!<)!!mp! d) z vD,2 | %34
 (6:4:6(E,/F,/G,/A,/B,/C/ (6:4:6D/E/F/G/A/B/ c) z (6:4:6(d/B/G/D/B,/G,/) | %35
 (6:4:6C/D/E/C/D/E/ DD,"^Rep. and lib." (6:4:6(G,/A,/B,/C/B,/A,/ G,2) :| %36
!f!"_spiccato" G,/D/B,/D/ G,/D/B,/D/ C/G/E/G/ C/G/E/G/ | %37
 F,/B,/G,/B,/ F,/B,/G,/B,/ A,/E/C/E/ A,/E/C/E/ | E,/B,/G,/B,/ E,/B,/G,/B,/ A,/E/C/E/ A,/E/C/E/ | %39
 D/c/A/c/ D/c/A/c/ !>![G,DB]/!>(!D/C/D/ B,/C/A,/B,/!>)! | %40
!pp!"_possibile" G,/D/B,/D/ G,/D/B,/D/ C/G/E/G/ C/G/E/G/ | %41
 F,/B,/G,/B,/ F,/B,/G,/B,/ A,/E/C/E/ A,/E/C/E/ | E,/B,/G,/B,/ E,/B,/G,/B,/ A,/E/C/E/ A,/E/C/E/ | %43
 D/c/A/c/ D/c/A/c/ B/D/C/D/ B,/C/A,/B,/ || %44
 (!>!G,/B,/D/)(.B,/ .D/.G/.B/.d/) (!>!^c/B/A/)(.=E/ .^C/.B,/.G,/.=E,/) | %45
 (!>!_E,/F,/A,/)(.C/ .E/.F/.A/.c/) (!>!=B/^G/=F/)(.D/ .=B,/.^G,/.F,/.D,/) | %46
 (!>!^C,/=E,/G,/)(.B,/ .^C/.=E/.D/.C/) (!>!=C/D/^F/).A/ (!>!B,/D/G/.d/) | %47
 c/B/"^rit."A/G/ ^F/D/=E/F/ G/D/B,/D/ G,2 |:!p!!<(! G,8!<)! | %49
!<(! (B2!<)!!mf! !0!A2)!>(! (!4!A2 _A2)!>)! |!pp! G4 G4 |!<(! (G2!<)! ^F2)!p! D4 :: %52
!f!!pp! !2!D4!pp! (CDC_B,) | F4 (B,CB,A,) |!<(! E4 A,CDE | (A,2 C2)!<)!!f!!f! C(B,A,G,) :| %56
!mf! z/"^arco." (.uG,/.A,/.B,/) z/ (.uG,/.A,/.=B,/) z/ (.uC/.D/.E/) z/ (.uC,/.D,/.E,/) | %57
 z/"^segue" F,/G,/A,/ z/ F,/G,/A,/ z/ B,/C/D/ z/ B,/C/D/ | %58
 z/ C/D/E/ z/ C,/D,/E,/ z/ D,/=E,/^F,/ z/ G,/A,/B,/ | z/ C/D/E/ z/ D,/=E,/^F,/ G,/C/B,/A,/ G,2 || %60
 z/"^pizz.""^con spiritu"!ppp! G,/A,/B,/ z/ G,/A,/=B,/ z/ C/D/E/ z/ C,/D,/E,/ | %61
 z/"^segue" F,/G,/A,/ z/ F,/G,/A,/ z/ B,/C/D/ z/ B,/C/D/ | %62
 z/ C/D/E/ z/ C,/D,/E,/ z/ D,/=E,/^F,/ z/ G,/A,/B,/ | z/ C/D/E/ z/ D,/=E,/^F,/ G,/C/B,/A,/ G,2 |: %64
 z!p!"^arco." !^!G,!^!B,!^!D !^!C!^!B,!^!A,!^!G, | %65
"_spiccato" .F,/4.A,/4.C/4.F/4A,/4C/4F/4A/4 C/4F/4A/4c/4[K:treble]F/4A/4c/4e/4 d/4e/4f/4e/4d/4e/4d/4c/4 B/4c/4d/4c/4B/4c/4B/4A/4 | %66
 !^!G!^!E!^!G!^!B !^!A!^!B!^!c!^!e | %67
 d/4d/4e/4d/4c/4d/4c/4B/4 A/4B/4A/4G/4[K:alto]^F/4E/4D/4C/4 B,/4C/4B,/4A,/4G,/4B,/4D/4F/4 G/4B/4d/4^f/4"_rep and lib."g :| %68
 z4"^a capriccia"{D,E,F,} .E,{^F,G,_A,}.G,{=B,CD}.C{DEF}.E | %69
 z4{^C,D,E,} .D,{=E,F,G,}.F,{A,B,^C}.B,{!courtesy!^CD!courtesy!_E}.D | %70
 z4{D,E,D,} .C,{D,E,F,}.E,{^G,A,B,}.A,{=B,CD}.C | %71
 z4"_rit."{^F,G,A,} .G,{A,B,C}.B,{^CDE}.D{.^FGA}.G |: %72
[K:treble]"^2te mal ponticello" (3:2:6((G/B/)(B/d/)(d/g/)!<(! (3:2:6(g/b/)(d/g/)(B/d/))!mp! (3:2:6((c/e/)(G/c/)(c/e/)!<)!!mf! (3:2:6(G/c/)(c/E/)(B,/C/)) | %73
"^flantando" (3:2:6((A,/C/)(C/F/)(F/A/)!<(! (3:2:6(A/c/)(c/f/)(f/a/))!mf! (3:2:6((b/d'/)(f/b/)(b/d'/)!<)!!f! (3:2:6(f/b/)(b/d'/)(f/b/)) | %74
 (3:2:6((B/e/)(G/B/)(E/G/) (3:2:6(B,/E/))(.G/.B/.e/.g/) (3:2:6((c/e/)(A/c/)(E/G/) (3:2:6(E/G/))(.A/.c/.e/.c/) | %75
 (3:2:6((e/g/)(B/d/)(G/B/) (3:2:6(E/G/)(D/G/)(C/^F/))"^rit." (3:2:6B,/D/B/d/g/b/"_rep and lib." [B!courtesy!_e] z :| %76
[M:12/8][K:alto] z"_saltando" .vD/.C/.B,/.A,/ G, z z2"_sempre" .vG/.F/.E/.D/ C z2 | %77
 z .C/.B,/.A,/.G,/ .F, z z2 F/E/D/C/ B, z2 | z B,/A,/G,/F,/ E, z z2 E/D/C/B,/ A, z2 | %79
 z B,/D/C/B,/ A, z z2 D/C/B,/A,/ G, !fermata!z z || %80
[M:4/4]!f!"_Molto Energico" !>![=B,G]3 .[B,G] !>![A,G]2 !>![B,G]2 | %81
 !>![CG]3 .[CE] [CD]2 !>![CE]>B, | !>![F,A,]3 .[F,A,] !>![F,G,]2 !>![F,A,]2 | %83
 !>![B,D]3 .[B,D] !>![B,C]2 .[B,D]>.A, | !>![G,D]3 .[G,D] !>![G,E]2 !>![G,D]2 | %85
 [G,A]/A,/4B,/4(5:4:5C/4D/4E/4F/4G/4 !>!A/4G/4E/4G/4E/4C/4A,/4C/4 A,/4G,/4E,/4G,/4E,/4F,/4E,/4D,/4 !>!C,2 | %86
 !>![D,A,]3 .[D,A,] !>![D,A,]2"_dim." !>![D,A,]2 |"_rit." [D,B,]4!mp! !fermata![D,B,]4 || %88
[K:treble]!f! G,/[Bd]/[Bd]/G,/ G,/[Ac]/[Ac]/G,/ G,/[ce]/[ce]/G,/ G,/[Bd]/[Bd]/G,/ | %89
 G,/[Ac]/[Ac]/G,/ G,/[Ge]/[Ge]/G,/ G,/[Bd]/[Bd]/G,/ G,/[Ac]/[Ac]/G,/ | %90
 G,/[GB]/[GB]/G,/ G,/[^FA]/[FA]/G,/ G,/[Ac]/[Ac]/G,/ G,/[GB]/[GB]/G,/ | %91
 G,/[^FA]/[FA]/G,/ G,/[=Ec]/[Ec]/G,/ G,/[FA]/[FA]/G,/ G,/[B,G]/[B,G]/G,/ | %92
 [G,F]/[F=B]/[FB]/[G,F]/ [G,F]/[FB]/[FB]/[G,F]/ [G,E]/[Ec]/[Ec]/[G,E]/ [G,E]/[Ec]/[Ec]/[G,E]/ | %93
 [G,=E]/[E^c]/[Ec]/[G,E]/ [G,E]/[Ec]/[Ec]/[G,E]/ [G,F]/[Fd]/[Fd]/[G,F]/ [G,F]/[Fd]/[Fd]/[G,F]/ | %94
"_cresc. molto e string." [G,D]/[D=B]/[DB]/[G,D]/ [G,E]/[Ec]/!<(![Ec]/[G,E]/ [G,=E]/[E^c]/[Ec]/[G,E]/ [G,G]/[G=e]/[Ge]/[G,G]/ | %95
 [G,B]/[Bg]/[Bg]/[G,B]/ [G,^c]/[cb]/[cb]/[G,c]/!ff! !fermata![G,cb] !fermata!z!<)![K:alto]!fff! !>![B,D]2 | %96
 !>![C,D]2"_rit.  .  .  .  .  .  .  .  .  .  .  .  .  .  .  .  .  .  .  .  .  .  .  .  .  .  ." !>![C,C]!>![C,B,] !>!A,D !>![D,C]2 | %97
 [G,D]6 z2 |] %98
V:4
 x8 | x8 | x8 | x8 || x8 | x8 | x8 | x8 || x8 | x8 | x8 | x8 | x8 | x8 | x8 | x8 || x8 | x8 | x8 | %19
 x8 | x8 | x8 | x8 | A,4 G,3 x |: x8 | x8 | x8 | x8 :| x8 | x8 | x8 | x8 |: x8 | x8 | x8 | x8 :| %36
 x8 | x8 | x8 | x8 | x8 | x8 | x8 | x8 || x8 | x8 | x8 | x8 |: (B3!mf! =B)!>(! (c2!>)!!p! _B2) | %49
 (E2 F2) B,4 | B,4 (A,2 B,2) | (C2 D2) G,4 :: =B,4 x4 | A,4 x4 | G,4 x A,B,C | (^F,2 D,2) G, x3 :| %56
 x8 | x8 | x8 | x8 || x8 | x8 | x8 | x8 |: x8 | x3[K:treble] x5 | x8 | x3[K:alto] x5 :| x8 | x8 | %70
 x8 | x8 |:[K:treble] x8 | x8 | x8 | x8 :|[M:12/8][K:alto] x12 | x12 | x12 | x12 ||[M:4/4] x8 | %81
 x8 | x8 | x8 | x8 | x8 | x8 | x8 ||[K:treble] x8 | x8 | x8 | x8 | x8 | x8 | x8 | x6[K:alto] x2 | %96
 x4 !>!D,2 x2 | x8 |] %98
V:5
 x8 | x8 | x8 | x8 || x8 | x8 | x8 | x8 || x8 | x8 | x8 | x8 | x8 | x8 | x8 | x8 || x8 | x8 | x8 | %19
 x8 | x8 | x8 | x8 | x8 |: x8 | x8 | x8 | x8 :| x8 | x8 | x8 | x8 |: x8 | x8 | x8 | x8 :| x8 | x8 | %38
 x8 | x8 | x8 | x8 | x8 | x8 || x8 | x8 | x8 | x8 |: x4 (C2 D2) | x8 | x8 | x8 :: x8 | x8 | x8 | %55
 x8 :| x8 | x8 | x8 | x8 || x8 | x8 | x8 | x8 |: x8 | x3[K:treble] x5 | x8 | x3[K:alto] x5 :| x8 | %69
 x8 | x8 | x8 |:[K:treble] x8 | x8 | x8 | x8 :|[M:12/8][K:alto] x12 | x12 | x12 | x12 || %80
[M:4/4] x8 | x8 | x8 | x8 | x8 | x8 | x8 | x8 ||[K:treble] x8 | x8 | x8 | x8 | x8 | x8 | x8 | %95
 x6[K:alto] x2 | x8 | x8 |] %98

